Newaita-dark/apps/32/fluid-demo.svg

<svg height="32" viewBox="0 0 32 32" width="32" xmlns="http://www.w3.org/2000/svg" xmlns:xlink="http://www.w3.org/1999/xlink"><linearGradient id="a"><stop offset="0" stop-opacity=".313726"/><stop offset=".222222" stop-opacity=".27451"/><stop offset="1" stop-opacity="0"/></linearGradient><radialGradient id="b" cx="450.908936" cy="189.579361" gradientTransform="matrix(.00000017 -.0781325 -.140638 -.0000001 44.523152 63.595329)" gradientUnits="userSpaceOnUse" r="21.166656" xlink:href="#a"/><radialGradient id="c" cx="450.908936" cy="189.579361" gradientTransform="matrix(-.00000017 .0781325 .140638 .0000001 -12.770119 -7.527482)" gradientUnits="userSpaceOnUse" r="21.166656" xlink:href="#a"/><radialGradient id="d" cx="450.908936" cy="189.579361" gradientTransform="matrix(-.00000017 -.0781325 .140638 -.0000001 -12.770119 63.595329)" gradientUnits="userSpaceOnUse" r="21.166656" xlink:href="#a"/><radialGradient id="e" cx="450.908936" cy="189.579361" gradientTransform="matrix(.00000017 .0781325 -.140638 .0000001 44.52315 -7.527483)" gradientUnits="userSpaceOnUse" r="21.166656" xlink:href="#a"/><linearGradient id="f" gradientTransform="matrix(.0133601 0 0 .062506 12.465386 13.438784)" gradientUnits="userSpaceOnUse" x1="255.323059" x2="255.323044" y1="233.5" y2="254.666656"><stop offset="0" stop-opacity=".27451"/><stop offset="1" stop-opacity="0"/></linearGradient><linearGradient id="g" gradientUnits="userSpaceOnUse" x1="232.833328" x2="232.833328" y1="233.5" y2="-168.666656"><stop offset="0" stop-color="#ef5350"/><stop offset="1" stop-color="#e57373"/></linearGradient><linearGradient id="h" gradientUnits="userSpaceOnUse" x1="2.66111547971" x2="2.66111547971" y1="1.44764848051" y2=".26017491523"><stop offset="0" stop-color="#e0e0e0"/><stop offset="1" stop-color="#eee"/></linearGradient><path d="m18.191406 28.035156h2.648438v-1.324218h-2.648438zm0 0" fill="url(#b)"/><path d="m13.5625 28.035156h-2.648438v1.320313h2.648438zm0 0" fill="url(#c)"/><path d="m13.5625 28.035156h-2.648438v-1.324218h2.648438zm0 0" fill="url(#d)"/><path d="m18.191406 28.035156h2.648438v1.320313h-2.648438zm0 0" fill="url(#e)"/><path d="m13.5625 27.703125h4.628906v1.652344h-4.628906zm0 0" fill="url(#f)"/><path d="m253.975747-168.691922c111.051895 0 201.105795 90.0539 201.105795 201.105795s-90.0539 201.105796-201.105795 201.105796c-111.051896 0-201.043302-90.053901-201.043302-201.105796s89.991406-201.105795 201.043302-201.105795zm0 0" fill="url(#g)" stroke="#333" stroke-linecap="round" stroke-width="3" transform="matrix(.062506 0 0 .062506 0 13.438783)"/><path d="m15.875 28.035156c-6.960938 0-12.566406-5.605468-12.566406-12.570312 0-.039063 0-.082032 0-.121094.066406 6.902344 5.644531 12.445312 12.566406 12.445312s12.503906-5.542968 12.570312-12.445312v.121094c0 6.964844-5.605468 12.570312-12.570312 12.570312zm0 0" fill-opacity=".196078"/><path d="m15.875 2.894531c-6.960938 0-12.566406 5.605469-12.566406 12.570313v.125c.066406-6.90625 5.644531-12.449219 12.566406-12.449219s12.503906 5.542969 12.570312 12.449219c0-.042969 0-.082032 0-.125 0-6.964844-5.605468-12.570313-12.570312-12.570313zm0 0" fill="#fff" fill-opacity=".392157"/><path d="m15.875 2.800781c-7.011719 0-12.660156 5.652344-12.660156 12.664063 0 7.011718 5.648437 12.664062 12.660156 12.664062 7.015625 0 12.664062-5.652344 12.664062-12.664062 0-7.011719-5.648437-12.664063-12.664062-12.664063zm0 .1875c6.914062 0 12.476562 5.5625 12.476562 12.476563 0 6.914062-5.5625 12.476562-12.476562 12.476562-6.910156 0-12.472656-5.5625-12.472656-12.476562 0-6.914063 5.5625-12.476563 12.472656-12.476563zm0 0" fill="#212121"/><path d="m10.015625 9.726562 2.664063 4.242188-4.636719-1.066406 6.269531 5.269531-.261719.28125-.132812.144531s.097656.273438.21875.605469l-3.832031 1.886719h4.519531l1.621093-1.128906 3.820313-2.652344 1.734375-1.203125-.238281-3.539063v-.222656l1.917969.222656-1.917969-2.0625-2.476563.375-.441406.066406-.800781 1.957032-.472657.84375zm0 0" fill="url(#h)"/><path d="m10.015625 9.726562.464844.746094 7.089843 3.769532.472657-.84375.800781-1.957032.441406-.066406 2.476563-.375 1.402343 1.503906.515626.0625-1.917969-2.0625-2.476563.375-.441406.066406-.800781 1.957032-.472657.84375zm11.746094 3.113282v.222656l.207031 3.066406.03125-.023437-.21875-3.265625zm-13.71875.0625.8125.683594 3.824219.878906-.363282-.582032zm6.011719 5.546875-.003907.003906-.132812.144531s.074219.210938.128906.355469l.003906-.003906.261719-.28125zm-.070313.832031-3.679687 1.808594h1.007812l2.824219-1.390625c-.082031-.230469-.113281-.316407-.152344-.417969zm0 0" fill="#fff" fill-opacity=".970968"/><path d="m10.015625 10.222656 2.300781 3.660156.363282.085938-2.199219-3.496094zm11.746094 2.121094v.222656l.019531.273438 1.898438.222656-.515626-.558594zm-13.71875 1.054688 6.011719 5.050781.257812-.277344-5.457031-4.585937zm13.925781 2.730468-1.703125 1.179688-3.820313 2.652344-1.621093 1.128906h-3.511719l-1.007812.496094h4.519531l1.621093-1.128907 3.820313-2.652343 1.734375-1.203126zm-7.921875 2.824219-.128906.140625s.050781.140625.066406.1875l.152344-.078125c-.046875-.136719-.054688-.148437-.089844-.25zm0 0" fill-opacity=".235294"/><path d="m605.61127 588.132834 161.08697 256.510924-280.366912-64.482028 379.097636 318.630973-15.825259 17.006249-8.030729 8.739323s5.904948 16.533853 13.227083 36.610675l-231.710145 114.083588h273.280976l98.02213-68.261195 231.00155-160.378377 104.87187-72.748954-14.408072-213.995302v-13.46328l115.973171 13.46328-115.973171-124.712493-149.749471 22.674999-26.690364 4.015364-48.42057 118.33515-28.579946 51.018747zm0 0" fill="none" stroke="#212121" stroke-width="11.338582" transform="matrix(.016538 0 0 .016538 .000003 -.000001)"/></svg>

<?xml version="1.0" encoding="UTF-8"?>
<svg xmlns="http://www.w3.org/2000/svg" xmlns:xlink="http://www.w3.org/1999/xlink" width="32px" height="32px" viewBox="0 0 32 32" version="1.1">
<defs>
<radialGradient id="radial0" gradientUnits="userSpaceOnUse" cx="450.908936" cy="189.579361" fx="450.908936" fy="189.579361" r="21.166656" gradientTransform="matrix(0.00000017417,-0.0781325,-0.140638,-0.000000101539,44.523152,63.595329)">
<stop offset="0" style="stop-color:rgb(0%,0%,0%);stop-opacity:0.313726;"/>
<stop offset="0.222222" style="stop-color:rgb(0%,0%,0%);stop-opacity:0.27451;"/>
<stop offset="1" style="stop-color:rgb(0%,0%,0%);stop-opacity:0;"/>
</radialGradient>
<radialGradient id="radial1" gradientUnits="userSpaceOnUse" cx="450.908936" cy="189.579361" fx="450.908936" fy="189.579361" r="21.166656" gradientTransform="matrix(-0.00000017417,0.0781325,0.140638,0.000000101539,-12.770119,-7.527482)">
<stop offset="0" style="stop-color:rgb(0%,0%,0%);stop-opacity:0.313726;"/>
<stop offset="0.222222" style="stop-color:rgb(0%,0%,0%);stop-opacity:0.27451;"/>
<stop offset="1" style="stop-color:rgb(0%,0%,0%);stop-opacity:0;"/>
</radialGradient>
<radialGradient id="radial2" gradientUnits="userSpaceOnUse" cx="450.908936" cy="189.579361" fx="450.908936" fy="189.579361" r="21.166656" gradientTransform="matrix(-0.00000017417,-0.0781325,0.140638,-0.000000101539,-12.770119,63.595329)">
<stop offset="0" style="stop-color:rgb(0%,0%,0%);stop-opacity:0.313726;"/>
<stop offset="0.222222" style="stop-color:rgb(0%,0%,0%);stop-opacity:0.27451;"/>
<stop offset="1" style="stop-color:rgb(0%,0%,0%);stop-opacity:0;"/>
</radialGradient>
<radialGradient id="radial3" gradientUnits="userSpaceOnUse" cx="450.908936" cy="189.579361" fx="450.908936" fy="189.579361" r="21.166656" gradientTransform="matrix(0.00000017417,0.0781325,-0.140638,0.000000101539,44.52315,-7.527483)">
<stop offset="0" style="stop-color:rgb(0%,0%,0%);stop-opacity:0.313726;"/>
<stop offset="0.222222" style="stop-color:rgb(0%,0%,0%);stop-opacity:0.27451;"/>
<stop offset="1" style="stop-color:rgb(0%,0%,0%);stop-opacity:0;"/>
</radialGradient>
<linearGradient id="linear0" gradientUnits="userSpaceOnUse" x1="255.323059" y1="233.5" x2="255.323044" y2="254.666656" gradientTransform="matrix(0.0133601,0,0,0.062506,12.465386,13.438784)">
<stop offset="0" style="stop-color:rgb(0%,0%,0%);stop-opacity:0.27451;"/>
<stop offset="1" style="stop-color:rgb(0%,0%,0%);stop-opacity:0;"/>
</linearGradient>
<linearGradient id="linear1" gradientUnits="userSpaceOnUse" x1="232.833328" y1="233.5" x2="232.833328" y2="-168.666656" >
<stop offset="0" style="stop-color:rgb(93.725491%,32.549021%,31.37255%);stop-opacity:1;"/>
<stop offset="1" style="stop-color:rgb(89.803922%,45.09804%,45.09804%);stop-opacity:1;"/>
</linearGradient>
<linearGradient id="linear2" gradientUnits="userSpaceOnUse" x1="160.908966" y1="87.534737" x2="160.908966" y2="15.732006" gradientTransform="matrix(0.016538,0,0,0.016538,0.00000260033,-0.000000861065)">
<stop offset="0" style="stop-color:rgb(87.843138%,87.843138%,87.843138%);stop-opacity:1;"/>
<stop offset="1" style="stop-color:rgb(93.333334%,93.333334%,93.333334%);stop-opacity:1;"/>
</linearGradient>
</defs>
<g id="surface1">
<path style=" stroke:none;fill-rule:nonzero;fill:url(#radial0);" d="M 18.191406 28.035156 L 20.839844 28.035156 L 20.839844 26.710938 L 18.191406 26.710938 Z M 18.191406 28.035156 "/>
<path style=" stroke:none;fill-rule:nonzero;fill:url(#radial1);" d="M 13.5625 28.035156 L 10.914062 28.035156 L 10.914062 29.355469 L 13.5625 29.355469 Z M 13.5625 28.035156 "/>
<path style=" stroke:none;fill-rule:nonzero;fill:url(#radial2);" d="M 13.5625 28.035156 L 10.914062 28.035156 L 10.914062 26.710938 L 13.5625 26.710938 Z M 13.5625 28.035156 "/>
<path style=" stroke:none;fill-rule:nonzero;fill:url(#radial3);" d="M 18.191406 28.035156 L 20.839844 28.035156 L 20.839844 29.355469 L 18.191406 29.355469 Z M 18.191406 28.035156 "/>
<path style=" stroke:none;fill-rule:nonzero;fill:url(#linear0);" d="M 13.5625 27.703125 L 18.191406 27.703125 L 18.191406 29.355469 L 13.5625 29.355469 Z M 13.5625 27.703125 "/>
<path style="fill-rule:nonzero;fill:url(#linear1);stroke-width:3;stroke-linecap:round;stroke-linejoin:miter;stroke:rgb(20%,20%,20%);stroke-opacity:1;stroke-miterlimit:4;" d="M 253.975747 -168.691922 C 365.027642 -168.691922 455.081542 -78.638022 455.081542 32.413873 C 455.081542 143.465768 365.027642 233.519669 253.975747 233.519669 C 142.923851 233.519669 52.932445 143.465768 52.932445 32.413873 C 52.932445 -78.638022 142.923851 -168.691922 253.975747 -168.691922 Z M 253.975747 -168.691922 " transform="matrix(0.062506,0,0,0.062506,0,13.438783)"/>
<path style=" stroke:none;fill-rule:nonzero;fill:rgb(0%,0%,0%);fill-opacity:0.196078;" d="M 15.875 28.035156 C 8.914062 28.035156 3.308594 22.429688 3.308594 15.464844 C 3.308594 15.425781 3.308594 15.382812 3.308594 15.34375 C 3.375 22.246094 8.953125 27.789062 15.875 27.789062 C 22.796875 27.789062 28.378906 22.246094 28.445312 15.34375 C 28.445312 15.382812 28.445312 15.425781 28.445312 15.464844 C 28.445312 22.429688 22.839844 28.035156 15.875 28.035156 Z M 15.875 28.035156 "/>
<path style=" stroke:none;fill-rule:nonzero;fill:rgb(100%,100%,100%);fill-opacity:0.392157;" d="M 15.875 2.894531 C 8.914062 2.894531 3.308594 8.5 3.308594 15.464844 C 3.308594 15.507812 3.308594 15.546875 3.308594 15.589844 C 3.375 8.683594 8.953125 3.140625 15.875 3.140625 C 22.796875 3.140625 28.378906 8.683594 28.445312 15.589844 C 28.445312 15.546875 28.445312 15.507812 28.445312 15.464844 C 28.445312 8.5 22.839844 2.894531 15.875 2.894531 Z M 15.875 2.894531 "/>
<path style=" stroke:none;fill-rule:nonzero;fill:rgb(12.941177%,12.941177%,12.941177%);fill-opacity:1;" d="M 15.875 2.800781 C 8.863281 2.800781 3.214844 8.453125 3.214844 15.464844 C 3.214844 22.476562 8.863281 28.128906 15.875 28.128906 C 22.890625 28.128906 28.539062 22.476562 28.539062 15.464844 C 28.539062 8.453125 22.890625 2.800781 15.875 2.800781 Z M 15.875 2.988281 C 22.789062 2.988281 28.351562 8.550781 28.351562 15.464844 C 28.351562 22.378906 22.789062 27.941406 15.875 27.941406 C 8.964844 27.941406 3.402344 22.378906 3.402344 15.464844 C 3.402344 8.550781 8.964844 2.988281 15.875 2.988281 Z M 15.875 2.988281 "/>
<path style=" stroke:none;fill-rule:nonzero;fill:url(#linear2);" d="M 10.015625 9.726562 L 12.679688 13.96875 L 8.042969 12.902344 L 14.3125 18.171875 L 14.050781 18.453125 L 13.917969 18.597656 C 13.917969 18.597656 14.015625 18.871094 14.136719 19.203125 L 10.304688 21.089844 L 14.824219 21.089844 L 16.445312 19.960938 L 20.265625 17.308594 L 22 16.105469 L 21.761719 12.566406 L 21.761719 12.34375 L 23.679688 12.566406 L 21.761719 10.503906 L 19.285156 10.878906 L 18.84375 10.945312 L 18.042969 12.902344 L 17.570312 13.746094 Z M 10.015625 9.726562 "/>
<path style=" stroke:none;fill-rule:nonzero;fill:rgb(100%,100%,100%);fill-opacity:0.970968;" d="M 10.015625 9.726562 L 10.480469 10.472656 L 17.570312 14.242188 L 18.042969 13.398438 L 18.84375 11.441406 L 19.285156 11.375 L 21.761719 11 L 23.164062 12.503906 L 23.679688 12.566406 L 21.761719 10.503906 L 19.285156 10.878906 L 18.84375 10.945312 L 18.042969 12.902344 L 17.570312 13.746094 Z M 21.761719 12.839844 L 21.761719 13.0625 L 21.96875 16.128906 L 22 16.105469 L 21.78125 12.839844 Z M 8.042969 12.902344 L 8.855469 13.585938 L 12.679688 14.464844 L 12.316406 13.882812 Z M 14.054688 18.449219 L 14.050781 18.453125 L 13.917969 18.597656 C 13.917969 18.597656 13.992188 18.808594 14.046875 18.953125 L 14.050781 18.949219 L 14.3125 18.667969 Z M 13.984375 19.28125 L 10.304688 21.089844 L 11.3125 21.089844 L 14.136719 19.699219 C 14.054688 19.46875 14.023438 19.382812 13.984375 19.28125 Z M 13.984375 19.28125 "/>
<path style=" stroke:none;fill-rule:nonzero;fill:rgb(0%,0%,0%);fill-opacity:0.235294;" d="M 10.015625 10.222656 L 12.316406 13.882812 L 12.679688 13.96875 L 10.480469 10.472656 Z M 21.761719 12.34375 L 21.761719 12.566406 L 21.78125 12.839844 L 23.679688 13.0625 L 23.164062 12.503906 Z M 8.042969 13.398438 L 14.054688 18.449219 L 14.3125 18.171875 L 8.855469 13.585938 Z M 21.96875 16.128906 L 20.265625 17.308594 L 16.445312 19.960938 L 14.824219 21.089844 L 11.3125 21.089844 L 10.304688 21.585938 L 14.824219 21.585938 L 16.445312 20.457031 L 20.265625 17.804688 L 22 16.601562 Z M 14.046875 18.953125 L 13.917969 19.09375 C 13.917969 19.09375 13.96875 19.234375 13.984375 19.28125 L 14.136719 19.203125 C 14.089844 19.066406 14.082031 19.054688 14.046875 18.953125 Z M 14.046875 18.953125 "/>
<path style="fill:none;stroke-width:11.338582;stroke-linecap:butt;stroke-linejoin:miter;stroke:rgb(12.941177%,12.941177%,12.941177%);stroke-opacity:1;stroke-miterlimit:4;" d="M 605.61127 588.132834 L 766.69824 844.643758 L 486.331328 780.16173 L 865.428964 1098.792703 L 849.603705 1115.798952 L 841.572976 1124.538275 C 841.572976 1124.538275 847.477924 1141.072128 854.800059 1161.14895 L 623.089914 1275.232538 L 896.37089 1275.232538 L 994.39302 1206.971343 L 1225.39457 1046.592966 L 1330.26644 973.844012 L 1315.858368 759.84871 L 1315.858368 746.38543 L 1431.831539 759.84871 L 1315.858368 635.136217 L 1166.108897 657.811216 L 1139.418533 661.82658 L 1090.997963 780.16173 L 1062.418017 831.180477 Z M 605.61127 588.132834 " transform="matrix(0.016538,0,0,0.016538,0.00000260033,-0.000000861065)"/>
</g>
</svg>
